X: 494
M: 6/4
L: 1/4
K: Gm
d |\
g>ag ^f>=ef | g3 ^f3  | g3 ^f3 | g3 d2e |\
d>cB A2G | G3- G2 :: A | B>AB c>Bc | d3- d2A |
g3 ^f3 | g3 d2e | d>cB A2G | G3 G2 :|

